X: 3335
T: DUNDEE HORNPIPE
R: Hornpipe.
%R: hornpipe, reel
B: James Kerr "Merry Melodies" v.3 p.36 #335
Z: 2016 John Chambers <jc:trillian.mit.edu>
M: C
L: 1/8
K: D
(uFG) |\
AFDF AFdB | AdFA fedc |\
BdGB gefd |[1 ecdB A2 :|[2 ecAc d2 |]
|: (de) |\
fdcd BdAd | FAde fdcd |\
eAfA gAfA |[1 ecdB A2 :|[2 (3efe (3dcB A2 |]

%%sep 1 1 500
%%sep 1 1 500

